X: 1
T: Andy's Saltire
C: Amy Gedden
R: jig
Z: 2013 John Chambers <jc:trillian.mit.edu>
B: Christine Martin "Ho-Ro-Gheallaidh" "Session Tunes for Scottish Fiddlers" v.3 2008
M: 6/8
L: 1/8
K: A
|:\
"A"a3 aec | "Bm"BcB "E7"BGE | EBE cEd | d2c "Bm"BAF |\
"A"a3 aec | "Bm"BcB "E7"BGE | "D"DFA "E7"EGB | "A"cAG [1 Ace :|2 A2A |]
[|\
"E7"B3 BGE | "A"ccc c2A | "B7"BfB gBa- | "E"a2g fec |\
"E7"ABB BGE | "A"ccc c2A | "B7"B^df agf | "E"g3 gec |]
[|\
"E7"B3 BGE | "A"ccc c2A | "B7"BfB gBa- | "E"a2g feg |\
"A"a3 aec | "E7"BcB BGE | "D"DFA "E7"EGB | "A"cAG A3 |]
